libs/ui/packages/crypto-icons/src/svg/HOT.svg

<svg width="24" height="24" viewBox="0 0 24 24" fill="none">
<path d="M5.25 15.7675C5.39325 15.7675 5.544 15.775 5.68725 15.7675C5.9595 15.7473 6.2325 15.6925 6.49875 15.625C7.02382 15.4816 7.51528 15.2357 7.94475 14.9013C8.06775 14.806 8.19 14.704 8.30625 14.5945C8.5515 14.3493 8.76375 14.0695 8.934 13.7695C9.084 13.5033 9.19275 13.2168 9.27525 12.9235C9.282 12.9033 9.282 12.8755 9.28875 12.8553H8.21775C7.99519 12.8543 7.77339 12.8291 7.55625 12.7803C7.53667 12.7723 7.51587 12.7677 7.49475 12.7668C7.48432 12.7615 7.47493 12.7544 7.467 12.7458C7.5285 12.61 7.58325 12.4803 7.638 12.3438L8.05425 11.3815C8.06755 11.3356 8.08806 11.292 8.115 11.2525C8.14472 11.225 8.18402 11.2102 8.2245 11.2113C8.559 11.2045 8.886 11.2113 9.2205 11.2113H9.309C9.2955 11.1565 9.2955 11.116 9.282 11.0688C9.16117 10.6073 8.94758 10.1752 8.65425 9.79903C8.51 9.61534 8.35258 9.44239 8.18325 9.28153C7.97144 9.08227 7.73562 8.9102 7.48125 8.76928C7.21616 8.62019 6.93739 8.49688 6.64875 8.40103C6.40834 8.3257 6.16195 8.271 5.91225 8.23753C5.71425 8.21653 5.523 8.20978 5.32575 8.19628C5.27775 8.19628 5.22975 8.18953 5.1825 8.18278C5.17275 8.17985 5.16387 8.17455 5.15667 8.16735C5.14947 8.16015 5.14417 8.15128 5.14125 8.14153C5.073 7.98478 5.00475 7.83478 4.9365 7.67803C4.854 7.49353 4.779 7.30978 4.698 7.13203C4.6365 6.98203 4.56825 6.83953 4.5 6.68203L4.64325 6.64078C4.94325 6.60028 5.25075 6.58678 5.5575 6.60028C6.04588 6.61665 6.53089 6.68759 7.0035 6.81178C7.3035 6.89353 7.6035 6.99553 7.89 7.11853C8.29275 7.28878 8.6745 7.50103 9.03 7.75303C9.186 7.86853 9.34275 7.99153 9.4935 8.11453C9.561 8.16928 9.62925 8.23078 9.6975 8.29153C10.0388 8.61928 10.3387 8.99428 10.5915 9.39703C10.8435 9.79903 11.028 10.2355 11.151 10.693C11.1915 10.843 11.2185 11.0005 11.253 11.1505C11.2569 11.162 11.2643 11.1721 11.2741 11.1793C11.2839 11.1865 11.2956 11.1906 11.3077 11.191H12.6923C12.72 11.0815 12.7402 10.9728 12.7605 10.8633C12.843 10.543 12.9517 10.2355 13.0883 9.94228C13.197 9.69703 13.3335 9.45853 13.4902 9.24028C13.6335 9.04228 13.7835 8.84428 13.9478 8.66053C14.0684 8.51798 14.1981 8.38344 14.3363 8.25778C14.6231 7.99736 14.9337 7.76434 15.264 7.56178C15.6052 7.35028 15.96 7.17928 16.335 7.04353C16.5945 6.95503 16.8532 6.87328 17.1127 6.80503C17.31 6.75703 17.5013 6.72253 17.706 6.69553C17.8695 6.66853 18.0405 6.65503 18.2108 6.64078C18.3203 6.63403 18.4222 6.62728 18.5317 6.62728C18.6952 6.62728 18.852 6.62053 19.0087 6.62728C19.1662 6.63478 19.323 6.66853 19.4797 6.69553C19.4865 6.69553 19.4865 6.70303 19.5 6.71578L19.3837 6.98878C19.2615 7.27528 19.1385 7.56178 19.0087 7.85503C18.9592 7.95797 18.9137 8.0628 18.8722 8.16928C18.8453 8.23678 18.777 8.20978 18.7297 8.22328C18.6885 8.23078 18.6548 8.23078 18.6135 8.22328C17.9162 8.23007 17.2291 8.3909 16.6012 8.69428C16.3076 8.83774 16.0325 9.01657 15.7822 9.22678C15.6802 9.31528 15.5647 9.40378 15.4688 9.50578C15.2227 9.75178 15.0113 10.0308 14.841 10.3383C14.7042 10.592 14.5946 10.8595 14.514 11.1363C14.5065 11.1565 14.5065 11.1843 14.4998 11.2045H14.5748C14.9295 11.2045 15.291 11.197 15.6458 11.2045C15.8573 11.2045 16.0688 11.2383 16.2735 11.3065C16.281 11.314 16.287 11.314 16.2938 11.3208L16.0965 11.7708C15.96 12.091 15.8167 12.412 15.6803 12.739C15.639 12.835 15.612 12.8553 15.5025 12.8553H14.5065C14.5342 12.9505 14.5545 13.0323 14.5815 13.1148C14.6775 13.4013 14.814 13.6735 14.9843 13.9263C15.087 14.0763 15.1958 14.2128 15.312 14.3493C15.3795 14.431 15.4545 14.5128 15.5295 14.581C15.7822 14.8263 16.0695 15.0385 16.3755 15.2088C16.635 15.3588 16.9147 15.4818 17.2013 15.5763C17.4742 15.6723 17.7608 15.7338 18.054 15.7608L18.5925 15.802C18.6608 15.8095 18.729 15.8095 18.7972 15.8155C18.8108 15.823 18.825 15.829 18.8317 15.8433C18.9472 16.1155 19.0635 16.3885 19.1865 16.6615L19.479 17.3298C19.3837 17.3508 19.2952 17.371 19.2 17.3778C18.9675 17.3913 18.729 17.4048 18.4972 17.4048C18.2858 17.4048 18.0743 17.3845 17.8695 17.3575C17.5858 17.3175 17.3037 17.2674 17.0235 17.2075C16.6877 17.1251 16.3591 17.0155 16.041 16.8798C15.6622 16.7176 15.3013 16.5165 14.964 16.2798C14.7882 16.1495 14.6154 16.0152 14.4457 15.877C14.3345 15.7864 14.2295 15.6885 14.1315 15.5838C13.7007 15.1455 13.3458 14.6386 13.0815 14.0838C12.927 13.7552 12.8124 13.4092 12.7402 13.0533C12.7267 13.0188 12.72 12.9783 12.7125 12.9438C12.7125 12.8763 12.6788 12.862 12.6173 12.862H11.2395C11.1709 13.2324 11.061 13.5939 10.9117 13.9398C10.7908 14.2333 10.6376 14.5125 10.455 14.7723C10.3122 14.973 10.1595 15.1665 9.9975 15.352C9.88084 15.4936 9.75319 15.6258 9.61575 15.7473C9.40425 15.9318 9.17925 16.102 8.95425 16.2723C8.68365 16.4645 8.39594 16.6315 8.09475 16.771C7.53405 17.0376 6.93589 17.217 6.321 17.3028C6.1095 17.3365 5.898 17.3575 5.68725 17.3778C5.56685 17.3846 5.44615 17.3846 5.32575 17.3778C5.148 17.3778 4.971 17.3703 4.80075 17.3643C4.7385 17.3568 4.677 17.3508 4.61625 17.3365C4.58175 17.3298 4.56825 17.3163 4.5885 17.2758C4.725 16.9615 4.86825 16.648 5.00475 16.3338C5.08725 16.1433 5.16225 15.9663 5.25 15.7683V15.7675Z" fill="#8834FF"/>
</svg>

<svg width="24" height="24" viewBox="0 0 24 24" fill="none"><path fill="#8834ff" d="M5.25 15.768c.143 0 .294.007.437 0a5 5 0 0 0 .812-.143 4.1 4.1 0 0 0 1.446-.724q.186-.143.361-.306c.246-.246.458-.526.628-.825.15-.267.259-.553.341-.846.007-.02.007-.048.014-.069H8.218a3 3 0 0 1-.723-.088.1.1 0 0 1-.028-.021 10 10 0 0 0 .171-.402l.416-.962a.5.5 0 0 1 .061-.13.16.16 0 0 1 .11-.04c.334-.008.661 0 .995 0h.089c-.013-.056-.013-.096-.027-.143a3.5 3.5 0 0 0-.628-1.27 5 5 0 0 0-.47-.517 3.5 3.5 0 0 0-.703-.513 5 5 0 0 0-.832-.368 4.4 4.4 0 0 0-.737-.163c-.198-.021-.389-.028-.586-.042q-.072-.001-.143-.013a.06.06 0 0 1-.042-.041c-.068-.157-.136-.307-.205-.464-.082-.184-.157-.368-.238-.546-.062-.15-.13-.292-.198-.45l.143-.041c.3-.04.608-.054.915-.04.488.016.973.087 1.446.21.3.083.6.185.886.308q.606.255 1.14.634c.156.116.313.239.463.362.068.054.136.116.204.177.342.327.642.702.895 1.105.252.402.436.838.559 1.296.04.15.068.308.102.457a.06.06 0 0 0 .055.041h1.384c.028-.11.048-.218.069-.328q.122-.48.327-.92a4 4 0 0 1 .402-.703c.143-.198.293-.396.458-.58q.18-.214.388-.402.432-.391.928-.696a5.7 5.7 0 0 1 1.071-.518q.389-.135.778-.239a6 6 0 0 1 .593-.11c.163-.026.335-.04.505-.054.11-.007.211-.014.32-.014.164 0 .321-.006.478 0 .157.008.314.042.47.069.008 0 .008.007.021.02l-.116.273q-.182.428-.375.866-.075.155-.137.314c-.027.068-.095.04-.142.054a.3.3 0 0 1-.117 0 4.7 4.7 0 0 0-2.012.471 4 4 0 0 0-.819.533c-.102.088-.217.177-.313.279a3.7 3.7 0 0 0-.628.832 4 4 0 0 0-.327.798c-.007.02-.007.048-.014.069h.075c.355 0 .716-.008 1.07 0 .212 0 .424.033.628.101.008.008.014.008.02.015l-.197.45c-.136.32-.28.641-.416.968-.041.096-.068.116-.178.116h-.995c.027.095.048.177.075.26.095.286.232.559.402.811.103.15.212.287.328.423a4 4 0 0 0 1.063.86c.26.15.54.273.826.367q.411.144.853.185l.539.041c.068.008.136.008.204.014.014.007.028.013.035.027q.172.41.354.819l.293.668c-.095.02-.184.041-.279.048a12 12 0 0 1-.703.027c-.211 0-.423-.02-.628-.047q-.425-.06-.846-.15a6.4 6.4 0 0 1-.982-.328 6 6 0 0 1-1.077-.6q-.264-.195-.518-.403a5.5 5.5 0 0 1-1.364-1.793 4.6 4.6 0 0 1-.342-1.03c-.013-.035-.02-.076-.027-.11 0-.068-.034-.082-.096-.082H11.24c-.068.37-.178.732-.327 1.078q-.182.44-.457.832-.215.301-.457.58a3.5 3.5 0 0 1-.382.395c-.212.185-.437.355-.662.525q-.406.29-.86.499a6.1 6.1 0 0 1-1.773.532 10 10 0 0 1-.634.075q-.18.01-.361 0c-.178 0-.355-.008-.525-.014-.062-.007-.124-.013-.185-.027-.034-.007-.048-.02-.027-.061.136-.314.28-.628.416-.942.082-.19.157-.368.245-.566"/></svg>
